src/lib/packages/icons/src/assets/line/lemon-slice.svg

<svg width="24" height="24" viewBox="0 0 24 24" fill="none" xmlns="http://www.w3.org/2000/svg">
<path d="M19.2999 2.98994C18.9599 2.54994 18.44 2.27995 17.89 2.24995C17.32 2.20995 16.7699 2.41996 16.3699 2.81996L14.8699 4.31996L2.82994 16.3599C2.42994 16.7599 2.21996 17.31 2.25996 17.88C2.28996 18.44 2.55995 18.95 2.99995 19.29C5.05995 20.9 7.52993 21.7399 10.1099 21.7399C10.7699 21.7399 11.4399 21.68 12.1199 21.57C16.8999 20.77 20.7899 16.87 21.5899 12.1C22.1399 8.80995 21.3299 5.56996 19.3099 2.97996L19.2999 2.98994ZM5.95994 15.3599L9.37995 11.94V16.7799C8.12995 16.6399 6.94994 16.1499 5.95994 15.3699V15.3599ZM10.88 11.94L14.2999 15.3599C13.3399 16.1299 12.17 16.6399 10.88 16.7799V11.94ZM15.3599 14.2999L11.94 10.88H16.7799C16.6399 12.16 16.1299 13.3399 15.3599 14.2999ZM11.94 9.37995L15.3599 5.95994C16.1499 6.94994 16.6299 8.12995 16.7699 9.37995H11.94ZM20.1099 11.8699C19.4099 16.0199 16.0299 19.4099 11.8699 20.1099C9.00994 20.5899 6.17996 19.8899 3.91996 18.1199C3.78996 18.0199 3.75995 17.8699 3.74995 17.7999C3.74995 17.6599 3.78996 17.53 3.88996 17.44L4.88996 16.44C6.35996 17.66 8.19995 18.3299 10.13 18.3299C14.65 18.3299 18.32 14.66 18.32 10.14C18.32 8.20996 17.6499 6.37994 16.4299 4.89994L17.4299 3.89994C17.5199 3.80994 17.64 3.75996 17.76 3.75996C17.76 3.75996 17.78 3.75996 17.79 3.75996C17.87 3.75996 18.0099 3.78994 18.1099 3.92994C19.8699 6.18994 20.58 9.00995 20.1 11.88L20.1099 11.8699Z" fill="currentColor"/>
</svg>

<svg xmlns="http://www.w3.org/2000/svg" width="24" height="24" fill="none"><path fill="currentColor" d="M19.3 2.99c-.34-.44-.86-.71-1.41-.74a1.95 1.95 0 0 0-1.52.57l-1.5 1.5L2.83 16.36c-.4.4-.61.95-.57 1.52.03.56.3 1.07.74 1.41 2.06 1.61 4.53 2.45 7.11 2.45.66 0 1.33-.06 2.01-.17 4.78-.8 8.67-4.7 9.47-9.47.55-3.29-.26-6.53-2.28-9.12l-.01.01ZM5.96 15.36l3.42-3.42v4.84a6.733 6.733 0 0 1-3.42-1.41v-.01Zm4.92-3.42 3.42 3.42c-.96.77-2.13 1.28-3.42 1.42v-4.84Zm4.48 2.36-3.42-3.42h4.84a6.619 6.619 0 0 1-1.42 3.42Zm-3.42-4.92 3.42-3.42c.79.99 1.27 2.17 1.41 3.42h-4.83Zm8.17 2.49c-.7 4.15-4.08 7.54-8.24 8.24-2.86.48-5.69-.22-7.95-1.99a.48.48 0 0 1-.17-.32c0-.14.04-.27.14-.36l1-1A8.194 8.194 0 0 0 16.43 4.9l1-1a.47.47 0 0 1 .33-.14h.03c.08 0 .22.03.32.17 1.76 2.26 2.47 5.08 1.99 7.95l.01-.01Z"/></svg>
